X:1
T:Title
%%score { ( 1 3 ) | 2 }
L:1/8
M:4/4
K:Ab
V:1 treble nm="Grand Piano"
V:3 treble 
V:2 bass 
V:1
 z4 z2[Q:1/4=100] [Ac][Bd] | [ce] [ce]2 [df] [ce]2 [Bd]2 | [Ac]3 [Bd] [ce]4 | %3
 [Bd][Bd] [Bd]>[=Ac] [Bd][df] [ce]>[Bd] | [Ac]6 [Ac][Bd] | [ce]3 [df] [ce]2 [Bd]2 | %6
 [Ac]3 [Bd] [ce]4 | [Bd][Bd] [Bd]>[=Ac] [Bd][df] [ce]>[Bd] | [Ac]6 z2 | %9
 [Bd] [Bd]2 [Bd] [Bd]2 [Bd][ce] | [Bd] [Ac]2 [A_c] [A=c]4 | [ce][ce] [ce]>[ce] [Ac][EB][Ac][Gd] | %12
 e2- [de-]2 [ce]2 z2 | [Bd] [Bd]2 [Bd] [Bd]2 [Bd][ce] | [Bd] [Ac]2 [A_c] [A=c]4 | %15
[M:35/32] [Bd][Bd][Bd]>[=Ac][Bd][df][ce]-(3:2:4[ce]3/2-[ce]/4[Bd]3/4-[Bd]/8 |[M:3/4] [Ac]6 |] %17
V:2
 z4 z2 [A,,E,][A,,E,] | [A,,A,] [A,,A,]2 [A,,A,] [A,,A,]2 [A,,E,]2 | [A,,E,]4 [A,,A,]4 | %3
 [E,G,][E,G,] [E,G,]>[E,G,] [E,G,][E,G,] [E,A,]>E, | [A,,E,]6 [A,,E,][A,,E,] | %5
 [A,,A,]3 [A,,A,] [A,,A,]2 [A,,E,]2 | [A,,E,]4 [A,,A,]4 | %7
 [E,G,][E,G,] [E,G,]>[E,G,] [E,G,][E,G,] [E,A,]>E, | [A,,E,]6 z2 | %9
 [E,G,] [E,G,]2 [E,G,] [E,G,]2 [E,G,][E,A,] | [A,,A,] [A,,E,]2 [A,,=D,] [A,,E,]4 | %11
 [A,,A,][A,,A,] [A,,A,]>[A,,A,] [A,,E,][G,,E,][A,,E,][B,,E,] | [C,E,]2 [B,,G,]2 [A,,A,]2 z2 | %13
 [E,G,] [E,G,]2 [E,G,] [E,G,]2 [E,G,][E,G,] | [A,,A,] [A,,E,]2 [A,,=D,] [A,,E,]4 | %15
[M:35/32] [E,G,][E,G,][E,G,]>[E,G,][E,G,][E,G,][E,A,]-(3:2:4[E,A,]3/2-[E,A,]/4E,3/4-E,/8 | %16
[M:3/4] [A,,E,]6 |] %17
V:3
 x8 | x8 | x8 | x8 | x8 | x8 | x8 | x8 | x8 | x8 | x8 | x8 | A2 z2 z4 | x8 | x8 |[M:35/32] x35/4 | %16
[M:3/4] x6 |] %17

